src/assets/icons/numbers,simple,06.svg

<svg width="48" height="48" viewBox="0 0 48 48" fill="none" xmlns="http://www.w3.org/2000/svg">
<rect opacity="0.2" x="5" y="5" width="38" height="38" rx="4" fill="black"/>
<path d="M24.2477 36.3082C29.2676 36.3303 32.6912 33.0387 32.6802 28.4482C32.6912 24.2209 29.7409 21.1715 25.7449 21.1715C23.2679 21.1715 21.0772 22.3604 20.0645 24.353H19.9103C19.9324 19.9606 21.4735 17.2305 24.4128 17.2305C26.1412 17.2305 27.3851 18.1772 27.7484 19.7514H32.449C31.9977 16.0415 28.9153 13.1463 24.4128 13.1463C18.8425 13.1463 15.2647 17.6598 15.2427 25.2337C15.2317 33.4901 19.6131 36.2862 24.2477 36.3082ZM24.2257 32.5653C22.024 32.5653 20.3947 30.793 20.3947 28.5913C20.4057 26.4006 22.068 24.6172 24.2587 24.6172C26.4604 24.6172 28.0676 26.3455 28.0566 28.5803C28.0676 30.837 26.4274 32.5653 24.2257 32.5653Z" fill="black"/>
</svg>

<svg xmlns="http://www.w3.org/2000/svg" width="48" height="48" fill="none" viewBox="0 0 48 48">
  <rect width="38" height="38" x="5" y="5" fill="#000" opacity=".2" rx="4"/>
  <path fill="#000" d="M24.248 36.308c5.02.022 8.443-3.27 8.432-7.86.011-4.227-2.94-7.276-6.935-7.276-2.477 0-4.668 1.188-5.68 3.181h-.155c.022-4.392 1.564-7.123 4.503-7.123 1.728 0 2.972.947 3.335 2.521h4.701c-.451-3.71-3.534-6.605-8.036-6.605-5.57 0-9.148 4.514-9.17 12.088-.011 8.256 4.37 11.052 9.005 11.074zm-.022-3.743c-2.202 0-3.831-1.772-3.831-3.974.01-2.19 1.673-3.974 3.864-3.974 2.201 0 3.809 1.729 3.798 3.963.01 2.257-1.63 3.985-3.831 3.985z"/>
</svg>
